svg/u1fa86.svg

<svg viewBox="0 0 128 128" xmlns="http://www.w3.org/2000/svg">
  <g>
    <g>
      <g>
        <linearGradient id="SVGID_1_" gradientUnits="userSpaceOnUse" x1="64" x2="64" y1="81.4601" y2="49.3987">
          <stop offset="0.0952" stop-color="#242322"/>
          <stop offset="0.8607" stop-color="#6D4C41"/>
        </linearGradient>
        <ellipse cx="64" cy="62.44" fill="url(#SVGID_1_)" rx="48.88" ry="23.93"/>
      </g>
      <path d="M25.19,93.01c-2.26,2.71-3.52,5.7-3.52,8.84C21.68,114.08,40.63,124,64,124 s42.32-9.92,42.32-22.15c0-3.14-1.26-6.13-3.52-8.84H25.19z" fill="#C2362B"/>
      <path d="M64,86.69c-46.37-3.16-50.67-24.96-50.67-24.96c0,16.41,14.67,40.12,14.67,40.12 S39.35,116.02,64,116.02s36.01-14.17,36.01-14.17s14.67-23.71,14.67-40.12C114.67,61.73,110.37,83.54,64,86.69z" fill="#F54536"/>
      <path d="M64,76.46c-35.86-2.24-37.29-17.74-37.29-17.74c0,11.66,9.44,28.51,9.44,28.51S44.93,97.3,64,97.3 s27.85-10.07,27.85-10.07s9.44-16.85,9.44-28.51C101.29,58.73,99.86,74.22,64,76.46z" fill="#C2362B"/>
      <path d="M63.64,75.58c-16.01,0-25.69-6.12-25.69-6.12C41.04,84.88,51.53,97.3,63.99,97.3 c12.48,0,22.98-12.46,26.06-27.93C90.05,69.38,79.66,75.58,63.64,75.58z" fill="#E0E0E0"/>
      <path d="M63.56,86.69c-19.57,0-31.39-6.76-31.39-6.76c3.78,17.02,16.59,27.57,31.81,27.57 c15.25,0,28.08-10.59,31.84-27.66C95.82,79.85,83.13,86.69,63.56,86.69z" fill="#FAFAFA"/>
      <path d="M64,40.42c12.92,0,25,2.54,34.03,7.15c8.06,4.12,12.68,9.51,12.68,14.78 s-4.62,10.66-12.68,14.78C89,81.75,76.92,84.29,64,84.29s-25-2.54-34.03-7.15c-8.06-4.12-12.68-9.51-12.68-14.78 s4.62-10.66,12.68-14.78C39,42.96,51.08,40.42,64,40.42 M64,36.45c-27.99,0-50.67,11.6-50.67,25.9S36.01,88.25,64,88.25 s50.67-11.6,50.67-25.9S91.99,36.45,64,36.45L64,36.45z" fill="#F2B87E"/>
      <path d="M48.42,117.09c4.03,0.61,8,1.07,11.97,1.23c3.97,0.14,7.93,0.03,11.84-0.47 c0.98-0.14,1.96-0.23,2.93-0.4c0.97-0.19,1.94-0.34,2.91-0.55c1.94-0.39,3.84-0.9,5.74-1.46c3.79-1.16,7.47-2.67,11.07-4.58 c-2.97,2.79-6.59,4.91-10.39,6.47c-1.9,0.81-3.88,1.4-5.87,1.95c-2,0.5-4.04,0.86-6.08,1.14c-4.1,0.47-8.25,0.47-12.32-0.09 C56.14,119.78,52.14,118.73,48.42,117.09z" fill="#E89B9B"/>
    </g>
    <g>
      <path d="M64,73.9c10.58,0,19.13-1.94,24.84-4.55c0.08-2.12,0.07-5.65-0.06-7.3 c-0.64-8.07-2.78-12.89-4.65-16.88c-5.17-11.02-1.85-15.76-1.85-21.97C82.28,13.14,74.13,4,64.07,4 c-10.06,0-18.21,9.14-18.21,19.2c0,6.21,3.32,10.95-1.85,21.97c-1.87,3.98-3.62,8.81-4.65,16.88 c-0.21,1.64-0.28,5.18-0.24,7.29C44.83,71.96,53.4,73.9,64,73.9z" fill="#F54536"/>
      <path d="M88.88,69.35c0.03-2.2,0-6.02-0.1-7.3c-0.13-1.64-0.32-3.13-0.56-4.52 C82.43,65.65,73.73,69.93,64,69.93c-9.6,0-18.2-4.15-23.99-12.09c-0.24,1.3-0.46,2.7-0.65,4.21c-0.16,1.27-0.24,5.1-0.25,7.29 C44.87,71.95,53.38,73.9,64,73.9C74.62,73.9,83.12,71.95,88.88,69.35z" fill="#BF1A1A"/>
      <path d="M64,73.97c6.32,0,11.91-0.85,16.61-1.84c0,0,0.51-5.38,0.51-7.49c0-13.64-7.4-24.7-16.52-24.7 c-9.12,0-16.52,11.06-16.52,24.7c0,2.2,0.55,7.77,0.55,7.77C53.07,73.26,58.23,73.97,64,73.97z" fill="#FFFFFF"/>
      <path d="M80.74,72.06c0.19-1.91,0.33-5.84,0.38-7.43c0,0-6.7,4.74-17.12,4.74s-15.9-3.91-15.9-3.91 c0.07,1.41,0.23,5.16,0.41,6.88c4.46,0.96,9.66,1.62,15.49,1.62C70.39,73.97,76.02,73.19,80.74,72.06z" fill="#C7C7C7"/>
      <path d="M84.61,46.2c-0.16-0.35-0.32-0.7-0.47-1.03c-5.17-11.02-1.85-15.76-1.85-21.97 C83.15,12.24,74.13,4,64.07,4c-10.06,0-19.11,7.96-18.21,19.2c0,6.21,3.32,10.95-1.85,21.97c-0.16,0.34-0.32,0.7-0.47,1.05 c7.39-1.28,13.31-6.2,20.89-6.2S77.27,44.86,84.61,46.2z" fill="#00897B"/>
      <g>
        <path d="M62.38,49.38c2.56-3.91,2.2-9.58,2.2-9.58s-4.62,1.07-7.18,4.98c-2.56,3.91-2.09,9.17-2.09,9.17 S59.82,53.29,62.38,49.38z" fill="#00897B"/>
        <path d="M73.43,54.02c0,0,0.55-5.26-1.96-9.2c-2.5-3.94-7.11-5.08-7.11-5.08s-0.44,5.66,2.06,9.61 C68.93,53.29,73.43,54.02,73.43,54.02z" fill="#00897B"/>
      </g>
      <ellipse cx="64" cy="22.3" fill="#FFCA28" rx="12.62" ry="13.19" transform="matrix(0.9998 -0.0187 0.0187 0.9998 -0.4053 1.1994)"/>
      <g>
        <ellipse cx="58.5" cy="24.52" fill="#3E2723" rx="2.04" ry="2.84"/>
        <ellipse cx="69.5" cy="24.52" fill="#3E2723" rx="2.04" ry="2.84"/>
      </g>
      <path d="M76.61,22.4c0-0.11,0.01-0.23,0.01-0.34c-0.14-7.28-5.9-13.08-12.87-12.95 c-6.93,0.13-12.44,6.07-12.37,13.29c0.94-0.37,3.88-1.66,6.78-4.55c3.51-3.49,5.78-6.79,5.83-6.72c0.05-0.07,2.32,3.23,5.83,6.72 C72.73,20.74,75.66,22.03,76.61,22.4z" fill="#3E2723"/>
    </g>
    <path d="M84.75,46.5c0.65,1.43,1.31,3.01,1.91,4.79c6.85,2.59,10.67,6.1,10.67,8.99 c0,5.27-12.68,12.62-33.32,12.62s-33.32-7.35-33.32-12.62c0-2.93,3.93-6.51,10.97-9.11c0.56-1.76,1.16-3.31,1.78-4.73 c-10.07,2.97-16.72,8.06-16.72,13.83c0,9.16,16.69,16.59,37.29,16.59s37.29-7.43,37.29-16.59C101.29,54.54,94.72,49.48,84.75,46.5 z" fill="#F2B87E"/>
  </g>
</svg>

<svg viewBox="0 0 128 128" xmlns="http://www.w3.org/2000/svg">
  <defs>
    <linearGradient id="SVGID_1_" gradientUnits="userSpaceOnUse" x1="64" x2="64" y1="81.4601" y2="49.3987">
      <stop offset="0.0952" stop-color="#242322"/>
      <stop offset="0.8607" stop-color="#6D4C41"/>
    </linearGradient>
  </defs>
  <path d="M112.88,62.44 A48.88 23.93 0 1 1 15.12,62.44 A48.88 23.93 0 1 1 112.88,62.44 Z" fill="url(#SVGID_1_)"/>
  <path d="M25.19,93.01 C22.93,95.72 21.67,98.71 21.67,101.85 C21.68,114.08 40.63,124 64,124 C87.37,124 106.32,114.08 106.32,101.85 C106.32,98.71 105.06,95.72 102.8,93.01 L25.19,93.01 Z" fill="#C2362B"/>
  <path d="M64,86.69 C17.63,83.53 13.33,61.73 13.33,61.73 C13.33,78.14 28,101.85 28,101.85 C28,101.85 39.35,116.02 64,116.02 C88.65,116.02 100.01,101.85 100.01,101.85 C100.01,101.85 114.68,78.14 114.68,61.73 C114.67,61.73 110.37,83.54 64,86.69 Z" fill="#F54536"/>
  <path d="M64,76.46 C28.14,74.22 26.71,58.72 26.71,58.72 C26.71,70.38 36.15,87.23 36.15,87.23 C36.15,87.23 44.93,97.3 64,97.3 C83.07,97.3 91.85,87.23 91.85,87.23 C91.85,87.23 101.29,70.38 101.29,58.72 C101.29,58.73 99.86,74.22 64,76.46 Z" fill="#C2362B"/>
  <path d="M63.64,75.58 C47.63,75.58 37.95,69.46 37.95,69.46 C41.04,84.88 51.53,97.3 63.99,97.3 C76.47,97.3 86.97,84.84 90.05,69.37 C90.05,69.38 79.66,75.58 63.64,75.58 Z" fill="#E0E0E0"/>
  <path d="M63.56,86.69 C43.99,86.69 32.17,79.93 32.17,79.93 C35.95,96.95 48.76,107.5 63.98,107.5 C79.23,107.5 92.06,96.91 95.82,79.84 C95.82,79.85 83.13,86.69 63.56,86.69 Z" fill="#FAFAFA"/>
  <path d="M64,40.42 C76.92,40.42 89,42.96 98.03,47.57 C106.09,51.69 110.71,57.08 110.71,62.35 C110.71,67.62 106.09,73.01 98.03,77.13 C89,81.75 76.92,84.29 64,84.29 C51.08,84.29 39,81.75 29.97,77.14 C21.91,73.02 17.29,67.63 17.29,62.36 C17.29,57.09 21.91,51.7 29.97,47.58 C39,42.96 51.08,40.42 64,40.42 M64,36.45 C36.01,36.45 13.33,48.05 13.33,62.35 C13.33,76.65 36.01,88.25 64,88.25 C91.99,88.25 114.67,76.65 114.67,62.35 C114.67,48.05 91.99,36.45 64,36.45 L64,36.45 Z" fill="#F2B87E"/>
  <path d="M48.42,117.09 C52.45,117.7 56.42,118.16 60.39,118.32 C64.36,118.46 68.32,118.35 72.23,117.85 C73.21,117.71 74.19,117.62 75.16,117.45 C76.13,117.26 77.1,117.11 78.07,116.9 C80.01,116.51 81.91,116 83.81,115.44 C87.6,114.28 91.28,112.77 94.88,110.86 C91.91,113.65 88.29,115.77 84.49,117.33 C82.59,118.14 80.61,118.73 78.62,119.28 C76.62,119.78 74.58,120.14 72.54,120.42 C68.44,120.89 64.29,120.89 60.22,120.33 C56.14,119.78 52.14,118.73 48.42,117.09 Z" fill="#E89B9B"/>
  <path d="M64,73.9 C74.58,73.9 83.13,71.96 88.84,69.35 C88.92,67.23 88.91,63.7 88.78,62.05 C88.14,53.98 86,49.16 84.13,45.17 C78.96,34.15 82.28,29.41 82.28,23.2 C82.28,13.14 74.13,4 64.07,4 C54.01,4 45.86,13.14 45.86,23.2 C45.86,29.41 49.18,34.15 44.01,45.17 C42.14,49.15 40.39,53.98 39.36,62.05 C39.15,63.69 39.08,67.23 39.12,69.34 C44.83,71.96 53.4,73.9 64,73.9 Z" fill="#F54536"/>
  <path d="M88.88,69.35 C88.91,67.15 88.88,63.33 88.78,62.05 C88.65,60.41 88.46,58.92 88.22,57.53 C82.43,65.65 73.73,69.93 64,69.93 C54.4,69.93 45.8,65.78 40.01,57.84 C39.77,59.14 39.55,60.54 39.36,62.05 C39.2,63.32 39.12,67.15 39.11,69.34 C44.87,71.95 53.38,73.9 64,73.9 C74.62,73.9 83.12,71.95 88.88,69.35 Z" fill="#BF1A1A"/>
  <path d="M64,73.97 C70.32,73.97 75.91,73.12 80.61,72.13 C80.61,72.13 81.12,66.75 81.12,64.64 C81.12,51 73.72,39.94 64.6,39.94 C55.48,39.94 48.08,51 48.08,64.64 C48.08,66.84 48.63,72.41 48.63,72.41 C53.07,73.26 58.23,73.97 64,73.97 Z" fill="#FFFFFF"/>
  <path d="M80.74,72.06 C80.93,70.15 81.07,66.22 81.12,64.63 C81.12,64.63 74.42,69.37 64,69.37 C53.58,69.37 48.1,65.46 48.1,65.46 C48.17,66.87 48.33,70.62 48.51,72.34 C52.97,73.3 58.17,73.96 64,73.96 C70.39,73.97 76.02,73.19 80.74,72.06 Z" fill="#C7C7C7"/>
  <path d="M84.61,46.2 C84.45,45.85 84.29,45.5 84.14,45.17 C78.97,34.15 82.29,29.41 82.29,23.2 C83.15,12.24 74.13,4 64.07,4 C54.01,4 44.96,11.96 45.86,23.2 C45.86,29.41 49.18,34.15 44.01,45.17 C43.85,45.51 43.69,45.87 43.54,46.22 C50.93,44.94 56.85,40.02 64.43,40.02 C72.01,40.02 77.27,44.86 84.61,46.2 Z" fill="#00897B"/>
  <path d="M62.38,49.38 C64.94,45.47 64.58,39.8 64.58,39.8 C64.58,39.8 59.96,40.87 57.4,44.78 C54.84,48.69 55.31,53.95 55.31,53.95 C55.31,53.95 59.82,53.29 62.38,49.38 Z" fill="#00897B"/>
  <path d="M73.43,54.02 C73.43,54.02 73.98,48.76 71.47,44.82 C68.97,40.88 64.36,39.74 64.36,39.74 C64.36,39.74 63.92,45.4 66.42,49.35 C68.93,53.29 73.43,54.02 73.43,54.02 Z" fill="#00897B"/>
  <path d="M76.616,22.062 C76.753,29.345 71.214,35.355 64.246,35.486 C57.277,35.616 51.518,29.817 51.381,22.534 C51.245,15.251 56.784,9.241 63.752,9.111 C70.721,8.98 76.48,14.779 76.616,22.062 Z" fill="#FFCA28"/>
  <path d="M60.54,24.52 A2.04 2.84 0 1 1 56.46,24.52 A2.04 2.84 0 1 1 60.54,24.52 Z" fill="#3E2723"/>
  <path d="M71.54,24.52 A2.04 2.84 0 1 1 67.46,24.52 A2.04 2.84 0 1 1 71.54,24.52 Z" fill="#3E2723"/>
  <path d="M76.61,22.4 C76.61,22.29 76.62,22.17 76.62,22.06 C76.48,14.78 70.72,8.98 63.75,9.11 C56.82,9.24 51.31,15.18 51.38,22.4 C52.32,22.03 55.26,20.74 58.16,17.85 C61.67,14.36 63.94,11.06 63.99,11.13 C64.04,11.06 66.31,14.36 69.82,17.85 C72.73,20.74 75.66,22.03 76.61,22.4 Z" fill="#3E2723"/>
  <path d="M84.75,46.5 C85.4,47.93 86.06,49.51 86.66,51.29 C93.51,53.88 97.33,57.39 97.33,60.28 C97.33,65.55 84.65,72.9 64.01,72.9 C43.37,72.9 30.69,65.55 30.69,60.28 C30.69,57.35 34.62,53.77 41.66,51.17 C42.22,49.41 42.82,47.86 43.44,46.44 C33.37,49.41 26.72,54.5 26.72,60.27 C26.72,69.43 43.41,76.86 64.01,76.86 C84.61,76.86 101.3,69.43 101.3,60.27 C101.29,54.54 94.72,49.48 84.75,46.5 Z" fill="#F2B87E"/>
</svg>
